svg/u1f54b.svg

<svg viewBox="0 0 128 128" xmlns="http://www.w3.org/2000/svg">
  <path d="M65.18,123.89c0,0,53.21-0.27,56.01-0.27s3-0.5,3-3.02c0-2.52-1.02-79.82-0.96-81.63 c0.06-1.81-1.3-2.26-6.9-4.3c-5.6-2.04-49.11-15.9-50.02-16.13c-0.83-0.21-0.94-0.11-0.94-0.11l-12.99,82.02L65.18,123.89z" fill="#474B4F"/>
  <path d="M65.18,123.9c0,0-58.19-0.28-59.65-0.28s-1.47-0.49-1.54-2.1c-0.07-1.61,1.68-78.58,1.75-81.24 s0.63-3.07,4.33-3.98c3.7-0.91,55.32-17.88,55.32-17.88L65.18,123.9z" fill="#6D7276"/>
  <path d="M123.51,64.37L65.33,50.43l-0.69-1.29l0.71-8.19c0,0,17.94,4.79,31.37,8.08s26.68,6.67,26.68,6.67 L123.51,64.37z" fill="#E07E17"/>
  <path d="M5.39,55.59l-0.17,7.59l60.11-12.74l0.02-9.48c0,0-24.64,5.88-34.33,8.16S5.39,55.59,5.39,55.59z" fill="#F5B23F"/>
  <path d="M65.32,57c0,0-2.4,0.35-2.62,0.67c-0.22,0.31-0.44,8.47,0.09,8.69s2.51-0.17,2.51-0.17L65.32,57z" fill="#F5B23F"/>
  <path d="M54.76,61.88c0,0-0.39-3.48,1.17-3.48s1.18,3.13,1.18,3.13s1.69,0.71,1.64,2.31 c-0.04,1.6-1.86,3.46-2.35,3.46s-2.62-1.24-2.79-3.02C53.43,62.45,54.76,61.88,54.76,61.88z" fill="#F5B23F"/>
  <path d="M49.88,60.02c-0.39-0.28-14.13,2.39-14.36,3.06s-0.15,7.06,0.47,7.37s13.44-1.64,13.93-2.35 S50.36,60.38,49.88,60.02z" fill="#F5B23F"/>
  <path d="M30.15,63.35c-1.42,0.16-0.93,2.84-0.93,2.84s-1.33,1.05-1.29,2.53c0.04,1.6,2.26,2.88,2.57,2.84 s2.34-1.77,2.26-3.5c-0.05-1.24-1.6-1.95-1.6-1.95S31.35,63.22,30.15,63.35z" fill="#F5B23F"/>
  <path d="M25.25,64.93c-0.4-0.5-9.36,1.47-9.66,1.97c-0.6,1-0.32,6.81,0.13,7.03c0.44,0.22,9-0.93,9.4-1.42 S25.78,65.59,25.25,64.93z" fill="#F5B23F"/>
  <path d="M11.04,67.6c-1.01,0.18-0.83,2.35-0.83,2.35s-1.18,0.67-1.09,2.31s1.81,2.66,1.98,2.61 s1.89-1.25,1.8-2.93c-0.11-2-1.01-2.13-1.01-2.13S12.13,67.4,11.04,67.6z" fill="#F5B23F"/>
  <path d="M5.09,68.66c0,0,1.55-0.48,1.77-0.28c0.17,0.15,0.21,6.67-0.18,7.12c-0.4,0.44-1.76,0.79-1.76,0.79 L5.09,68.66z" fill="#F5B23F"/>
  <path d="M11,71.05c-0.47-0.02-0.9,0.38-0.9,1.11c0,0.68,0.45,1,0.93,0.95c0.58-0.05,0.83-0.6,0.8-1.13 C11.81,71.46,11.61,71.08,11,71.05z" fill="#F9DF9B"/>
  <path d="M5.05,70.44c0,0,0.77-0.33,0.87-0.2c0.1,0.13-0.02,3.71-0.15,3.84C5.64,74.2,4.96,74.4,4.96,74.4 L5.05,70.44z" fill="#F9DF9B"/>
  <path d="M16.84,68.09c-0.25,0.3-0.28,3.66,0.15,3.79c0.43,0.13,6.44-0.89,6.59-1.1 c0.15-0.2,0.07-3.92-0.1-4.05S17.06,67.82,16.84,68.09z" fill="#F9DF9B"/>
  <path d="M30.22,67.34c-0.63,0.03-1.08,0.4-1.06,1.13c0.03,0.73,0.75,0.96,1.13,0.98 c0.55,0.03,1.06-0.53,1.01-1.21S30.65,67.32,30.22,67.34z" fill="#F9DF9B"/>
  <path d="M37.62,64.36c-0.18,0.27-0.2,3.93,0.06,4.2s10.3-1.64,10.43-1.87c0.13-0.23,0.31-4.2-0.05-4.43 C47.7,62.02,37.82,64.07,37.62,64.36z" fill="#F9DF9B"/>
  <path d="M55.93,62.66c-0.73,0.07-0.96,0.86-0.96,1.36c0,0.5,0.54,1.06,1.19,0.99 c0.63-0.07,1.02-0.56,0.99-1.36C57.12,62.82,56.59,62.59,55.93,62.66z" fill="#F9DF9B"/>
  <path d="M65.32,59.16c0,0-1.36,0.06-1.49,0.33c-0.13,0.26-0.31,4.72-0.07,4.83c0.16,0.07,1.59-0.1,1.59-0.1 L65.32,59.16z" fill="#F9DF9B"/>
  <path d="M5.34,57.14l-0.09,4.29c0,0,8.34-1.79,8.85-2.13s2.44-2.21,2.44-2.21s2.44,1.22,2.81,1.17 c0.66-0.08,9.16-1.82,9.52-2.09c0.36-0.27,2.49-2.35,2.49-2.35s2.97,1.58,3.18,1.53c0.86-0.18,8.5-1.85,9.02-2.06 c0.52-0.21,2.49-2.63,2.49-2.63s2.81,1.42,3.2,1.45c0.39,0.03,11.98-2.62,12.74-2.83c0.76-0.21,3.34-2.57,3.34-2.57v-1.44 c0,0-2.7-1.48-3.24-1.51c-0.55-0.03-13,2.84-13.46,3.08c-0.45,0.24-2.75,2.83-2.75,2.83s-3.24-1.65-3.42-1.63 c-0.36,0.05-8.51,2.03-8.83,2.14c-0.34,0.12-2.46,2.81-2.46,2.81s-3-1.49-3.36-1.49c-0.36,0-8.67,1.96-9.03,2.14 c-0.36,0.18-2.34,2.67-2.34,2.67s-2.46-1.16-2.88-1.22C13.13,55.04,5.34,57.14,5.34,57.14z" fill="#F9DF9B"/>
  <path d="M65.32,57l-0.02,9.18c0,0,2.99,0.31,3.18,0.09c0.19-0.21,0.16-8.06-0.03-8.32 C68.12,57.5,65.32,57,65.32,57z" fill="#E07E17"/>
  <path d="M73.87,62.32c0,0-0.19-3.44,1.2-3.2c1.55,0.26,1.2,3.36,1.2,3.36s1.18,1.01,1.2,2.2 c0.04,2.43-2.13,3.26-2.43,3.24c-0.54-0.04-2.52-1.78-2.43-3.4C72.7,62.74,73.87,62.32,73.87,62.32z" fill="#E07E17"/>
  <path d="M80.82,60.49c-0.51,0.24-0.43,7.87-0.03,8.3c0.4,0.43,13.32,2.57,13.52,2.37 c0.2-0.2,0.42-7.49,0.06-7.78C94,63.09,81.24,60.3,80.82,60.49z" fill="#E07E17"/>
  <path d="M98.63,66.84c0,0-0.4-2.83,1.02-2.62c1.2,0.17,0.85,2.76,0.85,2.76s1.12,0.94,0.95,2.35 s-1.5,2.72-2.02,2.69c-0.24-0.01-2.1-1.15-2.07-3.03C97.4,67.5,98.6,66.84,98.63,66.84z" fill="#E07E17"/>
  <path d="M104.19,65.56c-0.25,0.28-0.3,7.16,0.13,7.52c0.43,0.36,8.7,1.73,9.13,1.57s0.34-6.71,0.17-6.98 C113.45,67.41,104.42,65.3,104.19,65.56z" fill="#E07E17"/>
  <path d="M117.12,70.99c0,0-0.27-2.41,0.85-2.35c1.12,0.07,0.82,2.35,0.82,2.35s0.68,0.61,0.62,2.21 c-0.05,1.36-0.99,2.7-1.45,2.67s-1.69-1.17-1.65-3.13C116.34,71.33,117.12,70.99,117.12,70.99z" fill="#E07E17"/>
  <path d="M123.58,69.76c0,0-1.54-0.19-1.8,0.04c-0.31,0.28-0.35,6.6-0.15,6.8s2.03,0.17,2.03,0.17 L123.58,69.76z" fill="#E07E17"/>
  <path d="M82.8,62.6c-0.34,0.25-0.29,4.68,0.07,4.94c0.36,0.26,9.6,1.91,9.93,1.68 c0.33-0.23,0.17-4.22-0.06-4.51C92.5,64.41,83.16,62.34,82.8,62.6z" fill="#F9B03C"/>
  <path d="M65.29,59.16c0,0,1.51,0.2,1.83,0.51c0.21,0.2,0.22,4.44,0.02,4.57s-1.86-0.07-1.86-0.07V59.16z" fill="#F5B23F"/>
  <path d="M75.06,63.4c-0.77,0-1.18,0.73-1.13,1.29c0.06,0.74,0.45,1.26,1.2,1.26c0.86,0,1.13-0.67,1.13-1.35 C76.25,63.92,75.73,63.4,75.06,63.4z" fill="#F9B03C"/>
  <path d="M99.55,67.73c-0.59,0-1.07,0.39-1.14,1.17c-0.07,0.78,0.39,1.24,1.11,1.27 c0.81,0.03,1.04-0.78,1.04-1.2C100.56,68.54,100.27,67.73,99.55,67.73z" fill="#F9B03C"/>
  <path d="M105.59,67.49c-0.18,0.21-0.16,4.06,0.1,4.23c0.26,0.16,6.24,1.17,6.47,1.11c0.23-0.07,0.16-3.71,0-4 C112,68.53,105.75,67.29,105.59,67.49z" fill="#F9B03C"/>
  <path d="M123.65,75.26c0,0-1.02,0.06-1.09-0.11c-0.11-0.29-0.11-3.52,0.07-3.71c0.12-0.13,0.97,0,0.97,0 L123.65,75.26z" fill="#F9B03C"/>
  <path d="M117.88,71.96c-0.72,0-0.88,0.59-0.91,1.11c-0.03,0.52,0.33,1.04,0.85,1.07 c0.52,0.03,0.98-0.55,0.94-1.04C118.73,72.61,118.56,71.96,117.88,71.96z" fill="#F9B03C"/>
  <path d="M123.49,62.4l-0.05-4.58c0,0-9.15-2.4-9.44-2.3c-0.29,0.1-2.33,1.28-2.33,1.28s-1.67-2.19-1.93-2.38 s-8.24-2.06-8.5-2.03s-2.37,1.07-2.37,1.07s-1.74-2.06-1.97-2.23s-9.52-2.33-10.01-2.4s-2.77,1.1-2.77,1.1s-1.73-2.46-2.33-2.71 s-12.97-3.43-13.52-3.33c-0.55,0.1-2.92,1.38-2.92,1.38v1.44c0,0,2.13,2.44,2.67,2.62c0.72,0.24,13.06,3.13,13.35,3.13 c0.29,0,2.58-1.42,2.58-1.42s1.28,2.37,1.63,2.59c0.48,0.29,10,2.3,10.32,2.37s2.81-1.46,2.81-1.46s1.28,2.33,1.51,2.39 s8.57,2.16,8.8,2.13c0.23-0.03,2.48-1.37,2.48-1.37s1.66,2.33,1.89,2.4C113.59,60.15,123.49,62.4,123.49,62.4z" fill="#F5B23F"/>
</svg>

<svg viewBox="0 0 128 128" xmlns="http://www.w3.org/2000/svg">
  <defs/>
  <path d="M65.18,123.89 C65.18,123.89 118.39,123.62 121.19,123.62 C123.99,123.62 124.19,123.12 124.19,120.6 C124.19,118.08 123.17,40.78 123.23,38.97 C123.29,37.16 121.93,36.71 116.33,34.67 C110.73,32.63 67.22,18.77 66.31,18.54 C65.48,18.33 65.37,18.43 65.37,18.43 L52.38,100.45 L65.18,123.89 Z" fill="#474B4F"/>
  <path d="M65.18,123.9 C65.18,123.9 6.99,123.62 5.53,123.62 C4.07,123.62 4.06,123.13 3.99,121.52 C3.92,119.91 5.67,42.94 5.74,40.28 C5.81,37.62 6.37,37.21 10.07,36.3 C13.77,35.39 65.39,18.42 65.39,18.42 L65.18,123.9 Z" fill="#6D7276"/>
  <path d="M123.51,64.37 L65.33,50.43 L64.64,49.14 L65.35,40.95 C65.35,40.95 83.29,45.74 96.72,49.03 C110.15,52.32 123.4,55.7 123.4,55.7 L123.51,64.37 Z" fill="#E07E17"/>
  <path d="M5.39,55.59 L5.22,63.18 L65.33,50.44 L65.35,40.96 C65.35,40.96 40.71,46.84 31.02,49.12 C21.33,51.4 5.39,55.59 5.39,55.59 Z" fill="#F5B23F"/>
  <path d="M65.32,57 C65.32,57 62.92,57.35 62.7,57.67 C62.48,57.98 62.26,66.14 62.79,66.36 C63.32,66.58 65.3,66.19 65.3,66.19 L65.32,57 Z" fill="#F5B23F"/>
  <path d="M54.76,61.88 C54.76,61.88 54.37,58.4 55.93,58.4 C57.49,58.4 57.11,61.53 57.11,61.53 C57.11,61.53 58.8,62.24 58.75,63.84 C58.71,65.44 56.89,67.3 56.4,67.3 C55.91,67.3 53.78,66.06 53.61,64.28 C53.43,62.45 54.76,61.88 54.76,61.88 Z" fill="#F5B23F"/>
  <path d="M49.88,60.02 C49.49,59.74 35.75,62.41 35.52,63.08 C35.29,63.75 35.37,70.14 35.99,70.45 C36.61,70.76 49.43,68.81 49.92,68.1 C50.41,67.39 50.36,60.38 49.88,60.02 Z" fill="#F5B23F"/>
  <path d="M30.15,63.35 C28.73,63.51 29.22,66.19 29.22,66.19 C29.22,66.19 27.89,67.24 27.93,68.72 C27.97,70.32 30.19,71.6 30.5,71.56 C30.81,71.52 32.84,69.79 32.76,68.06 C32.71,66.82 31.16,66.11 31.16,66.11 C31.16,66.11 31.35,63.22 30.15,63.35 Z" fill="#F5B23F"/>
  <path d="M25.25,64.93 C24.85,64.43 15.89,66.4 15.59,66.9 C14.99,67.9 15.27,73.71 15.72,73.93 C16.16,74.15 24.72,73 25.12,72.51 C25.52,72.02 25.78,65.59 25.25,64.93 Z" fill="#F5B23F"/>
  <path d="M11.04,67.6 C10.03,67.78 10.21,69.95 10.21,69.95 C10.21,69.95 9.03,70.62 9.12,72.26 C9.21,73.9 10.93,74.92 11.1,74.87 C11.27,74.82 12.99,73.62 12.9,71.94 C12.79,69.94 11.89,69.81 11.89,69.81 C11.89,69.81 12.13,67.4 11.04,67.6 Z" fill="#F5B23F"/>
  <path d="M5.09,68.66 C5.09,68.66 6.64,68.18 6.86,68.38 C7.03,68.53 7.07,75.05 6.68,75.5 C6.28,75.94 4.92,76.29 4.92,76.29 L5.09,68.66 Z" fill="#F5B23F"/>
  <path d="M11,71.05 C10.53,71.03 10.1,71.43 10.1,72.16 C10.1,72.84 10.55,73.16 11.03,73.11 C11.61,73.06 11.86,72.51 11.83,71.98 C11.81,71.46 11.61,71.08 11,71.05 Z" fill="#F9DF9B"/>
  <path d="M5.05,70.44 C5.05,70.44 5.82,70.11 5.92,70.24 C6.02,70.37 5.9,73.95 5.77,74.08 C5.64,74.2 4.96,74.4 4.96,74.4 L5.05,70.44 Z" fill="#F9DF9B"/>
  <path d="M16.84,68.09 C16.59,68.39 16.56,71.75 16.99,71.88 C17.42,72.01 23.43,70.99 23.58,70.78 C23.73,70.58 23.65,66.86 23.48,66.73 C23.31,66.6 17.06,67.82 16.84,68.09 Z" fill="#F9DF9B"/>
  <path d="M30.22,67.34 C29.59,67.37 29.14,67.74 29.16,68.47 C29.19,69.2 29.91,69.43 30.29,69.45 C30.84,69.48 31.35,68.92 31.3,68.24 C31.25,67.56 30.65,67.32 30.22,67.34 Z" fill="#F9DF9B"/>
  <path d="M37.62,64.36 C37.44,64.63 37.42,68.29 37.68,68.56 C37.94,68.83 47.98,66.92 48.11,66.69 C48.24,66.46 48.42,62.49 48.06,62.26 C47.7,62.02 37.82,64.07 37.62,64.36 Z" fill="#F9DF9B"/>
  <path d="M55.93,62.66 C55.2,62.73 54.97,63.52 54.97,64.02 C54.97,64.52 55.51,65.08 56.16,65.01 C56.79,64.94 57.18,64.45 57.15,63.65 C57.12,62.82 56.59,62.59 55.93,62.66 Z" fill="#F9DF9B"/>
  <path d="M65.32,59.16 C65.32,59.16 63.96,59.22 63.83,59.49 C63.7,59.75 63.52,64.21 63.76,64.32 C63.92,64.39 65.35,64.22 65.35,64.22 L65.32,59.16 Z" fill="#F9DF9B"/>
  <path d="M5.34,57.14 L5.25,61.43 C5.25,61.43 13.59,59.64 14.1,59.3 C14.61,58.96 16.54,57.09 16.54,57.09 C16.54,57.09 18.98,58.31 19.35,58.26 C20.01,58.18 28.51,56.44 28.87,56.17 C29.23,55.9 31.36,53.82 31.36,53.82 C31.36,53.82 34.33,55.4 34.54,55.35 C35.4,55.17 43.04,53.5 43.56,53.29 C44.08,53.08 46.05,50.66 46.05,50.66 C46.05,50.66 48.86,52.08 49.25,52.11 C49.64,52.14 61.23,49.49 61.99,49.28 C62.75,49.07 65.33,46.71 65.33,46.71 L65.33,45.27 C65.33,45.27 62.63,43.79 62.09,43.76 C61.54,43.73 49.09,46.6 48.63,46.84 C48.18,47.08 45.88,49.67 45.88,49.67 C45.88,49.67 42.64,48.02 42.46,48.04 C42.1,48.09 33.95,50.07 33.63,50.18 C33.29,50.3 31.17,52.99 31.17,52.99 C31.17,52.99 28.17,51.5 27.81,51.5 C27.45,51.5 19.14,53.46 18.78,53.64 C18.42,53.82 16.44,56.31 16.44,56.31 C16.44,56.31 13.98,55.15 13.56,55.09 C13.13,55.04 5.34,57.14 5.34,57.14 Z" fill="#F9DF9B"/>
  <path d="M65.32,57 L65.3,66.18 C65.3,66.18 68.29,66.49 68.48,66.27 C68.67,66.06 68.64,58.21 68.45,57.95 C68.12,57.5 65.32,57 65.32,57 Z" fill="#E07E17"/>
  <path d="M73.87,62.32 C73.87,62.32 73.68,58.88 75.07,59.12 C76.62,59.38 76.27,62.48 76.27,62.48 C76.27,62.48 77.45,63.49 77.47,64.68 C77.51,67.11 75.34,67.94 75.04,67.92 C74.5,67.88 72.52,66.14 72.61,64.52 C72.7,62.74 73.87,62.32 73.87,62.32 Z" fill="#E07E17"/>
  <path d="M80.82,60.49 C80.31,60.73 80.39,68.36 80.79,68.79 C81.19,69.22 94.11,71.36 94.31,71.16 C94.51,70.96 94.73,63.67 94.37,63.38 C94,63.09 81.24,60.3 80.82,60.49 Z" fill="#E07E17"/>
  <path d="M98.63,66.84 C98.63,66.84 98.23,64.01 99.65,64.22 C100.85,64.39 100.5,66.98 100.5,66.98 C100.5,66.98 101.62,67.92 101.45,69.33 C101.28,70.74 99.95,72.05 99.43,72.02 C99.19,72.01 97.33,70.87 97.36,68.99 C97.4,67.5 98.6,66.84 98.63,66.84 Z" fill="#E07E17"/>
  <path d="M104.19,65.56 C103.94,65.84 103.89,72.72 104.32,73.08 C104.75,73.44 113.02,74.81 113.45,74.65 C113.88,74.49 113.79,67.94 113.62,67.67 C113.45,67.41 104.42,65.3 104.19,65.56 Z" fill="#E07E17"/>
  <path d="M117.12,70.99 C117.12,70.99 116.85,68.58 117.97,68.64 C119.09,68.71 118.79,70.99 118.79,70.99 C118.79,70.99 119.47,71.6 119.41,73.2 C119.36,74.56 118.42,75.9 117.96,75.87 C117.5,75.84 116.27,74.7 116.31,72.74 C116.34,71.33 117.12,70.99 117.12,70.99 Z" fill="#E07E17"/>
  <path d="M123.58,69.76 C123.58,69.76 122.04,69.57 121.78,69.8 C121.47,70.08 121.43,76.4 121.63,76.6 C121.83,76.8 123.66,76.77 123.66,76.77 L123.58,69.76 Z" fill="#E07E17"/>
  <path d="M82.8,62.6 C82.46,62.85 82.51,67.28 82.87,67.54 C83.23,67.8 92.47,69.45 92.8,69.22 C93.13,68.99 92.97,65 92.74,64.71 C92.5,64.41 83.16,62.34 82.8,62.6 Z" fill="#F9B03C"/>
  <path d="M65.29,59.16 C65.29,59.16 66.8,59.36 67.12,59.67 C67.33,59.87 67.34,64.11 67.14,64.24 C66.94,64.37 65.28,64.17 65.28,64.17 L65.28,59.16 Z" fill="#F5B23F"/>
  <path d="M75.06,63.4 C74.29,63.4 73.88,64.13 73.93,64.69 C73.99,65.43 74.38,65.95 75.13,65.95 C75.99,65.95 76.26,65.28 76.26,64.6 C76.25,63.92 75.73,63.4 75.06,63.4 Z" fill="#F9B03C"/>
  <path d="M99.55,67.73 C98.96,67.73 98.48,68.12 98.41,68.9 C98.34,69.68 98.8,70.14 99.52,70.17 C100.33,70.2 100.56,69.39 100.56,68.97 C100.56,68.54 100.27,67.73 99.55,67.73 Z" fill="#F9B03C"/>
  <path d="M105.59,67.49 C105.41,67.7 105.43,71.55 105.69,71.72 C105.95,71.88 111.93,72.89 112.16,72.83 C112.39,72.76 112.32,69.12 112.16,68.83 C112,68.53 105.75,67.29 105.59,67.49 Z" fill="#F9B03C"/>
  <path d="M123.65,75.26 C123.65,75.26 122.63,75.32 122.56,75.15 C122.45,74.86 122.45,71.63 122.63,71.44 C122.75,71.31 123.6,71.44 123.6,71.44 L123.65,75.26 Z" fill="#F9B03C"/>
  <path d="M117.88,71.96 C117.16,71.96 117,72.55 116.97,73.07 C116.94,73.59 117.3,74.11 117.82,74.14 C118.34,74.17 118.8,73.59 118.76,73.1 C118.73,72.61 118.56,71.96 117.88,71.96 Z" fill="#F9B03C"/>
  <path d="M123.49,62.4 L123.44,57.82 C123.44,57.82 114.29,55.42 114,55.52 C113.71,55.62 111.67,56.8 111.67,56.8 C111.67,56.8 110,54.61 109.74,54.42 C109.48,54.23 101.5,52.36 101.24,52.39 C100.98,52.42 98.87,53.46 98.87,53.46 C98.87,53.46 97.13,51.4 96.9,51.23 C96.67,51.06 87.38,48.9 86.89,48.83 C86.4,48.76 84.12,49.93 84.12,49.93 C84.12,49.93 82.39,47.47 81.79,47.22 C81.19,46.97 68.82,43.79 68.27,43.89 C67.72,43.99 65.35,45.27 65.35,45.27 L65.35,46.71 C65.35,46.71 67.48,49.15 68.02,49.33 C68.74,49.57 81.08,52.46 81.37,52.46 C81.66,52.46 83.95,51.04 83.95,51.04 C83.95,51.04 85.23,53.41 85.58,53.63 C86.06,53.92 95.58,55.93 95.9,56 C96.22,56.07 98.71,54.54 98.71,54.54 C98.71,54.54 99.99,56.87 100.22,56.93 C100.45,56.99 108.79,59.09 109.02,59.06 C109.25,59.03 111.5,57.69 111.5,57.69 C111.5,57.69 113.16,60.02 113.39,60.09 C113.59,60.15 123.49,62.4 123.49,62.4 Z" fill="#F5B23F"/>
</svg>
